img/cart.svg

<svg width="24" height="22" viewBox="0 0 24 22" fill="none" xmlns="http://www.w3.org/2000/svg">
<path fill-rule="evenodd" clip-rule="evenodd" d="M3.64386 2.94181L2.98662 1.37143L0.501437 1.37144C0.224683 1.37144 0 1.14705 0 0.870649V0.498578C0 0.223048 0.223321 1.1133e-05 0.499205 1.02985e-05L3.44624 0C3.72456 0 3.97556 0.166523 4.08254 0.422137L4.76682 2.05714H23.4997C23.8198 2.05714 24.0575 2.35374 23.9877 2.66614L21.4541 14.009C21.403 14.2375 21.2002 14.4 20.9661 14.4H6.20325L6.20323 14.3999V14.4H5.78103L6.70002 17.1429H6.88497L6.8925 17.1429L6.90003 17.1429H20.67L20.6775 17.1429C21.8195 17.1429 22.7452 18.0639 22.7452 19.2C22.7452 20.3361 21.8195 21.2571 20.6775 21.2571C19.5355 21.2571 18.6097 20.3361 18.6097 19.2C18.6097 18.9596 18.6512 18.7288 18.7274 18.5143H8.84259C8.91879 18.7288 8.96025 18.9596 8.96025 19.2C8.96025 20.3361 8.03449 21.2571 6.8925 21.2571C5.75051 21.2571 4.82475 20.3361 4.82475 19.2C4.82475 18.6249 5.06192 18.105 5.44425 17.7317L4.17087 13.9311C4.10081 13.722 4.13606 13.4922 4.26561 13.3133C4.39515 13.1345 4.6032 13.0286 4.82476 13.0286H5.89692L3.64386 2.94181Z" fill="black"/>
</svg>

<?xml version="1.0" encoding="utf-8"?>
<!-- Generator: Adobe Illustrator 24.0.1, SVG Export Plug-In . SVG Version: 6.00 Build 0)  -->
<svg version="1.1" id="Layer_1" xmlns="http://www.w3.org/2000/svg" xmlns:xlink="http://www.w3.org/1999/xlink" x="0px" y="0px"
	 viewBox="0 0 24 22" style="enable-background:new 0 0 24 22;" xml:space="preserve">
<style type="text/css">
	.st0{fill-rule:evenodd;clip-rule:evenodd;}
</style>
<path class="st0" d="M3.6,2.9L3,1.4l-2.5,0C0.2,1.4,0,1.1,0,0.9V0.5C0,0.2,0.2,0,0.5,0l2.9,0C3.7,0,4,0.2,4.1,0.4l0.7,1.6h18.7
	c0.3,0,0.6,0.3,0.5,0.6L21.5,14c-0.1,0.2-0.3,0.4-0.5,0.4H6.2l0,0v0H5.8l0.9,2.7h0.2h0h0h13.8h0c1.1,0,2.1,0.9,2.1,2.1
	c0,1.1-0.9,2.1-2.1,2.1s-2.1-0.9-2.1-2.1c0-0.2,0-0.5,0.1-0.7H8.8C8.9,18.7,9,19,9,19.2c0,1.1-0.9,2.1-2.1,2.1s-2.1-0.9-2.1-2.1
	c0-0.6,0.2-1.1,0.6-1.5l-1.3-3.8c-0.1-0.2,0-0.4,0.1-0.6C4.4,13.1,4.6,13,4.8,13h1.1L3.6,2.9z"/>
</svg>
